static/emoji/1f321.svg

<svg viewBox="0 0 128 128" xmlns="http://www.w3.org/2000/svg"><path d="M76 80.34V16.29C76 9.77 70.82 4 64.3 4h-1.55C56.24 4 51 9.77 51 16.29v64.04c-7 4.2-11.24 11.68-11.24 20.2 0 13.14 10.64 23.8 23.79 23.8s23.74-10.65 23.74-23.8C87.28 92.01 83 84.54 76 80.34z" fill="#E1F5FE"/><linearGradient id="a" x1="67.014" x2="63.285" y1="38.588" y2="104.92" gradientUnits="userSpaceOnUse"><stop stop-color="#EF5350" offset=".597"/><stop stop-color="#E53935" offset="1"/></linearGradient><path d="M69.92 85.89V23.82c0-3.53-2.86-6.39-6.39-6.39s-6.39 2.86-6.39 6.39V85.9c-5.82 2.54-9.83 8.44-9.58 15.25.3 8.19 6.99 14.96 15.18 15.36 9.19.44 16.78-6.87 16.78-15.96a16 16 0 0 0-9.6-14.66z" fill="url(#a)"/><path d="M62.87 39.76H50.95v-6.39h11.92c1.66 0 3 1.34 3 3v.39c0 1.66-1.34 3-3 3zM62.87 58.32H50.95v-6.39h11.92c1.66 0 3 1.34 3 3v.39c0 1.65-1.34 3-3 3zM62.87 76.88H50.95v-6.39h11.92c1.66 0 3 1.34 3 3v.39c0 1.65-1.34 3-3 3z" fill="#616161"/><path d="M69.92 85.89V23.82c0-3.53-2.86-6.39-6.39-6.39s-6.39 2.86-6.39 6.39V85.9c-5.82 2.54-9.83 8.44-9.58 15.25.3 8.19 6.99 14.96 15.18 15.36 9.19.44 16.78-6.87 16.78-15.96a16 16 0 0 0-9.6-14.66z" fill="none" opacity=".2"/><path d="M64.15 7C68.87 7 73 11.26 73 16.29v64.04c0 1.05.55 2.03 1.46 2.57 6.15 3.69 9.82 10.28 9.82 17.63 0 11.47-9.3 20.8-20.74 20.8-11.46 0-20.79-9.33-20.79-20.8 0-7.36 3.66-13.95 9.79-17.63A3.01 3.01 0 0 0 54 80.33V16.29C54 11.26 58.01 7 62.76 7H64m.3-3h-1.55C56.24 4 51 9.77 51 16.29v64.04c-7 4.2-11.24 11.68-11.24 20.2 0 13.14 10.64 23.8 23.79 23.8s23.74-10.65 23.74-23.8c0-8.52-4.28-16-11.28-20.2V16.29C76 9.77 70.82 4 64.3 4z" fill="#424242" opacity=".2"/></svg>

<svg viewBox="0 0 128 128" xmlns="http://www.w3.org/2000/svg"><path d="M76 80.3v-64C76 9.8 70.8 4 64.3 4h-1.6C56.3 4 51 9.8 51 16.3v64a23.8 23.8 0 1 0 25 0z" fill="#E1F5FE"/><linearGradient id="a" x1="67" x2="63.3" y1="38.6" y2="104.9" gradientUnits="userSpaceOnUse"><stop stop-color="#EF5350" offset=".6"/><stop stop-color="#E53935" offset="1"/></linearGradient><path d="M70 85.9v-62a6.4 6.4 0 1 0-12.9 0v62a16 16 0 1 0 12.8 0z" fill="url(#a)"/><path d="M62.9 39.8h-12v-6.4h12a3 3 0 0 1 3 3v.4a3 3 0 0 1-3 3zm0 18.5h-12V52h12a3 3 0 0 1 3 3v.4a3 3 0 0 1-3 3zm0 18.6h-12v-6.4h12a3 3 0 0 1 3 3v.4a3 3 0 0 1-3 3z" fill="#616161"/><path d="M70 85.9v-62a6.4 6.4 0 1 0-12.9 0v62a16 16 0 1 0 12.8 0z" fill="none" opacity=".2"/><path d="M64.2 7c4.7 0 8.8 4.3 8.8 9.3v64c0 1 .6 2 1.5 2.6a20.8 20.8 0 1 1-22 0 3 3 0 0 0 1.5-2.6v-64c0-5 4-9.3 8.8-9.3H64m.3-3h-1.6C56.3 4 51 9.8 51 16.3v64a23.8 23.8 0 1 0 25 0v-64C76 9.8 70.8 4 64.3 4z" fill="#424242" opacity=".2"/></svg>
